X:1600
T:Swiss Boy   Quadrille
A:Wyresdale, Lancashire
B:E and J Winder, 1835-41
L:1/8
M:2/4
O:England
Z:Richard Robinson 
%%TUNEURL: http://www.leeds.ac.uk/music/Info/RRTuneBk/gettune/00001256.html
%%ID:00001256
K:F
A/B/   | .c(A/B/) .d(A/B/) | .c(a/g/)  fc/c/   | .c(b/a/) .g(a/g/) | .f(ag)
(A/B/) | .c(A/B/) .c(A/B/) | .c(a/g/) .f(c/c/) | .c(b/a/) .g(a/g/) | f2-f ||
c      | .c(g/f/) ec | .c(a/g/) .f(c/c/) | (B/c/g/f/) ec | .c(a/g/) .f
(A/B/) | (c/B/)(A/B/) (c/B/)(A/B/) | .c(a/g/) (f/A/)c/c/ | .c(b/a/) .g(a/g/) | faf :|
